bernoullicharts/exp_-x_alt_series__bits.svg

<?xml version="1.0" encoding="utf-8" standalone="no"?>
<!DOCTYPE svg PUBLIC "-//W3C//DTD SVG 1.1//EN"
  "http://www.w3.org/Graphics/SVG/1.1/DTD/svg11.dtd">
<!-- Created with matplotlib (https://matplotlib.org/) -->
<svg height="345.6pt" version="1.1" viewBox="0 0 460.8 345.6" width="460.8pt" xmlns="http://www.w3.org/2000/svg" xmlns:xlink="http://www.w3.org/1999/xlink">
 <defs>
  <style type="text/css">
*{stroke-linecap:butt;stroke-linejoin:round;}
  </style>
 </defs>
 <g id="figure_1">
  <g id="patch_1">
   <path d="M 0 345.6 
L 460.8 345.6 
L 460.8 0 
L 0 0 
z
" style="fill:#ffffff;"/>
  </g>
  <g id="axes_1">
   <g id="patch_2">
    <path d="M 57.6 307.584 
L 414.72 307.584 
L 414.72 41.472 
L 57.6 41.472 
z
" style="fill:#ffffff;"/>
   </g>
   <g id="matplotlib.axis_1">
    <g id="xtick_1">
     <g id="line2d_1">
      <defs>
       <path d="M 0 0 
L 0 3.5 
" id="mb34ff5d6d1" style="stroke:#000000;stroke-width:0.8;"/>
      </defs>
      <g>
       <use style="stroke:#000000;stroke-width:0.8;" x="73.800255" xlink:href="#mb34ff5d6d1" y="307.584"/>
      </g>
     </g>
     <g id="text_1">
      <text style="font-family:DejaVu Sans;font-size:10px;font-style:normal;font-weight:normal;text-anchor:middle;" transform="rotate(-0, 73.800255, 322.182437)" x="73.800255" y="322.182437">0.0</text>
     </g>
    </g>
    <g id="xtick_2">
     <g id="line2d_2">
      <g>
       <use style="stroke:#000000;stroke-width:0.8;" x="138.744153" xlink:href="#mb34ff5d6d1" y="307.584"/>
      </g>
     </g>
     <g id="text_2">
      <text style="font-family:DejaVu Sans;font-size:10px;font-style:normal;font-weight:normal;text-anchor:middle;" transform="rotate(-0, 138.744153, 322.182437)" x="138.744153" y="322.182437">0.2</text>
     </g>
    </g>
    <g id="xtick_3">
     <g id="line2d_3">
      <g>
       <use style="stroke:#000000;stroke-width:0.8;" x="203.688051" xlink:href="#mb34ff5d6d1" y="307.584"/>
      </g>
     </g>
     <g id="text_3">
      <text style="font-family:DejaVu Sans;font-size:10px;font-style:normal;font-weight:normal;text-anchor:middle;" transform="rotate(-0, 203.688051, 322.182437)" x="203.688051" y="322.182437">0.4</text>
     </g>
    </g>
    <g id="xtick_4">
     <g id="line2d_4">
      <g>
       <use style="stroke:#000000;stroke-width:0.8;" x="268.631949" xlink:href="#mb34ff5d6d1" y="307.584"/>
      </g>
     </g>
     <g id="text_4">
      <text style="font-family:DejaVu Sans;font-size:10px;font-style:normal;font-weight:normal;text-anchor:middle;" transform="rotate(-0, 268.631949, 322.182437)" x="268.631949" y="322.182437">0.6</text>
     </g>
    </g>
    <g id="xtick_5">
     <g id="line2d_5">
      <g>
       <use style="stroke:#000000;stroke-width:0.8;" x="333.575847" xlink:href="#mb34ff5d6d1" y="307.584"/>
      </g>
     </g>
     <g id="text_5">
      <text style="font-family:DejaVu Sans;font-size:10px;font-style:normal;font-weight:normal;text-anchor:middle;" transform="rotate(-0, 333.575847, 322.182437)" x="333.575847" y="322.182437">0.8</text>
     </g>
    </g>
    <g id="xtick_6">
     <g id="line2d_6">
      <g>
       <use style="stroke:#000000;stroke-width:0.8;" x="398.519745" xlink:href="#mb34ff5d6d1" y="307.584"/>
      </g>
     </g>
     <g id="text_6">
      <text style="font-family:DejaVu Sans;font-size:10px;font-style:normal;font-weight:normal;text-anchor:middle;" transform="rotate(-0, 398.519745, 322.182437)" x="398.519745" y="322.182437">1.0</text>
     </g>
    </g>
    <g id="text_7">
     <text style="font-family:DejaVu Sans;font-size:10px;font-style:normal;font-weight:normal;text-anchor:middle;" transform="rotate(-0, 236.16, 335.860562)" x="236.16" y="335.860562">Probability</text>
    </g>
   </g>
   <g id="matplotlib.axis_2">
    <g id="ytick_1">
     <g id="line2d_7">
      <defs>
       <path d="M 0 0 
L -3.5 0 
" id="m31d31f93af" style="stroke:#000000;stroke-width:0.8;"/>
      </defs>
      <g>
       <use style="stroke:#000000;stroke-width:0.8;" x="57.6" xlink:href="#m31d31f93af" y="290.259182"/>
      </g>
     </g>
     <g id="text_8">
      <text style="font-family:DejaVu Sans;font-size:10px;font-style:normal;font-weight:normal;text-anchor:end;" transform="rotate(-0, 50.6, 294.0584)" x="50.6" y="294.0584">2</text>
     </g>
    </g>
    <g id="ytick_2">
     <g id="line2d_8">
      <g>
       <use style="stroke:#000000;stroke-width:0.8;" x="57.6" xlink:href="#m31d31f93af" y="255.400392"/>
      </g>
     </g>
     <g id="text_9">
      <text style="font-family:DejaVu Sans;font-size:10px;font-style:normal;font-weight:normal;text-anchor:end;" transform="rotate(-0, 50.6, 259.199611)" x="50.6" y="259.199611">3</text>
     </g>
    </g>
    <g id="ytick_3">
     <g id="line2d_9">
      <g>
       <use style="stroke:#000000;stroke-width:0.8;" x="57.6" xlink:href="#m31d31f93af" y="220.541602"/>
      </g>
     </g>
     <g id="text_10">
      <text style="font-family:DejaVu Sans;font-size:10px;font-style:normal;font-weight:normal;text-anchor:end;" transform="rotate(-0, 50.6, 224.340821)" x="50.6" y="224.340821">4</text>
     </g>
    </g>
    <g id="ytick_4">
     <g id="line2d_10">
      <g>
       <use style="stroke:#000000;stroke-width:0.8;" x="57.6" xlink:href="#m31d31f93af" y="185.682813"/>
      </g>
     </g>
     <g id="text_11">
      <text style="font-family:DejaVu Sans;font-size:10px;font-style:normal;font-weight:normal;text-anchor:end;" transform="rotate(-0, 50.6, 189.482031)" x="50.6" y="189.482031">5</text>
     </g>
    </g>
    <g id="ytick_5">
     <g id="line2d_11">
      <g>
       <use style="stroke:#000000;stroke-width:0.8;" x="57.6" xlink:href="#m31d31f93af" y="150.824023"/>
      </g>
     </g>
     <g id="text_12">
      <text style="font-family:DejaVu Sans;font-size:10px;font-style:normal;font-weight:normal;text-anchor:end;" transform="rotate(-0, 50.6, 154.623242)" x="50.6" y="154.623242">6</text>
     </g>
    </g>
    <g id="ytick_6">
     <g id="line2d_12">
      <g>
       <use style="stroke:#000000;stroke-width:0.8;" x="57.6" xlink:href="#m31d31f93af" y="115.965233"/>
      </g>
     </g>
     <g id="text_13">
      <text style="font-family:DejaVu Sans;font-size:10px;font-style:normal;font-weight:normal;text-anchor:end;" transform="rotate(-0, 50.6, 119.764452)" x="50.6" y="119.764452">7</text>
     </g>
    </g>
    <g id="ytick_7">
     <g id="line2d_13">
      <g>
       <use style="stroke:#000000;stroke-width:0.8;" x="57.6" xlink:href="#m31d31f93af" y="81.106444"/>
      </g>
     </g>
     <g id="text_14">
      <text style="font-family:DejaVu Sans;font-size:10px;font-style:normal;font-weight:normal;text-anchor:end;" transform="rotate(-0, 50.6, 84.905663)" x="50.6" y="84.905663">8</text>
     </g>
    </g>
    <g id="ytick_8">
     <g id="line2d_14">
      <g>
       <use style="stroke:#000000;stroke-width:0.8;" x="57.6" xlink:href="#m31d31f93af" y="46.247654"/>
      </g>
     </g>
     <g id="text_15">
      <text style="font-family:DejaVu Sans;font-size:10px;font-style:normal;font-weight:normal;text-anchor:end;" transform="rotate(-0, 50.6, 50.046873)" x="50.6" y="50.046873">9</text>
     </g>
    </g>
    <g id="text_16">
     <text style="font-family:DejaVu Sans;font-size:10px;font-style:normal;font-weight:normal;text-anchor:middle;" transform="rotate(-90, 38.157812, 174.528)" x="38.157812" y="174.528">Average Bits Consumed Per Call</text>
    </g>
   </g>
   <g id="line2d_15">
    <path clip-path="url(#p9effcac8f8)" d="M 73.832727 295.488 
L 77.112066 289.283135 
L 80.391405 287.819066 
L 83.670744 288.376807 
L 86.950083 288.58596 
L 90.229421 285.727539 
L 93.50876 280.010697 
L 96.788099 286.84302 
L 100.067438 283.357141 
L 103.346777 282.450813 
L 106.626116 283.357141 
L 109.905455 284.193752 
L 113.184793 281.683919 
L 116.464132 282.869118 
L 119.743471 276.245948 
L 123.02281 275.61849 
L 126.302149 277.361429 
L 129.581488 272.411481 
L 132.860826 269.622778 
L 136.140165 265.579159 
L 139.419504 275.61849 
L 142.698843 267.810121 
L 145.978182 267.25238 
L 149.257521 265.091135 
L 152.53686 269.483343 
L 155.816198 264.9517 
L 159.095537 260.280622 
L 162.374876 261.326386 
L 165.654215 261.186951 
L 168.933554 264.184807 
L 172.212893 253.239147 
L 175.492231 258.677118 
L 178.77157 262.790455 
L 182.050909 255.400392 
L 185.330248 254.633499 
L 188.609587 251.077902 
L 191.888926 247.870893 
L 195.168264 240.550548 
L 198.447603 247.243435 
L 201.726942 243.896991 
L 205.006281 242.363205 
L 208.28562 237.552692 
L 211.564959 238.249867 
L 214.844298 234.345683 
L 218.123636 220.820473 
L 221.402975 238.18015 
L 224.682314 223.609176 
L 227.961653 220.681037 
L 231.240992 230.092911 
L 234.520331 218.659228 
L 237.799669 219.286686 
L 241.079008 213.151539 
L 244.358347 210.571988 
L 247.637686 216.428265 
L 250.917025 207.92272 
L 254.196364 207.08611 
L 257.475702 206.388934 
L 260.755041 198.371412 
L 264.03438 207.295262 
L 267.313719 205.62204 
L 270.593058 196.14045 
L 273.872397 193.072876 
L 277.151736 194.955251 
L 280.431074 190.493326 
L 283.710413 195.234121 
L 286.989752 178.920207 
L 290.269091 178.083597 
L 293.54843 182.406086 
L 296.827769 170.135793 
L 300.107107 172.157602 
L 303.386446 162.257706 
L 306.665785 173.133648 
L 309.945124 163.721775 
L 313.224463 161.351378 
L 316.503802 147.895885 
L 319.78314 150.126847 
L 323.062479 146.29238 
L 326.341818 146.01351 
L 329.621157 138.762882 
L 332.900496 133.534063 
L 336.179835 132.76717 
L 339.459174 128.44468 
L 342.738512 127.259481 
L 346.017851 116.522974 
L 349.29719 120.427159 
L 352.576529 111.921614 
L 355.855868 106.623078 
L 359.135207 102.509741 
L 362.414545 107.459689 
L 365.693884 97.490075 
L 368.973223 97.490075 
L 372.252562 85.986674 
L 375.531901 79.224069 
L 378.81124 91.982386 
L 382.090579 75.877625 
L 385.369917 80.967009 
L 388.649256 65.559424 
L 391.928595 65.559424 
L 395.207934 53.568 
L 398.487273 57.960207 
" style="fill:none;stroke:#1f77b4;stroke-linecap:square;stroke-width:1.5;"/>
   </g>
   <g id="patch_3">
    <path d="M 57.6 307.584 
L 57.6 41.472 
" style="fill:none;stroke:#000000;stroke-linecap:square;stroke-linejoin:miter;stroke-width:0.8;"/>
   </g>
   <g id="patch_4">
    <path d="M 414.72 307.584 
L 414.72 41.472 
" style="fill:none;stroke:#000000;stroke-linecap:square;stroke-linejoin:miter;stroke-width:0.8;"/>
   </g>
   <g id="patch_5">
    <path d="M 57.6 307.584 
L 414.72 307.584 
" style="fill:none;stroke:#000000;stroke-linecap:square;stroke-linejoin:miter;stroke-width:0.8;"/>
   </g>
   <g id="patch_6">
    <path d="M 57.6 41.472 
L 414.72 41.472 
" style="fill:none;stroke:#000000;stroke-linecap:square;stroke-linejoin:miter;stroke-width:0.8;"/>
   </g>
   <g id="text_17">
    <text style="font-family:DejaVu Sans;font-size:12px;font-style:normal;font-weight:normal;text-anchor:middle;" transform="rotate(-0, 236.16, 35.472)" x="236.16" y="35.472">Avg. Bits Consumed by exp(-x) (Alt. Series) Algorithm</text>
   </g>
   <g id="legend_1">
    <g id="patch_7">
     <path d="M 64.6 64.150125 
L 193.804688 64.150125 
Q 195.804688 64.150125 195.804688 62.150125 
L 195.804688 48.472 
Q 195.804688 46.472 193.804688 46.472 
L 64.6 46.472 
Q 62.6 46.472 62.6 48.472 
L 62.6 62.150125 
Q 62.6 64.150125 64.6 64.150125 
z
" style="fill:#ffffff;opacity:0.8;stroke:#cccccc;stroke-linejoin:miter;"/>
    </g>
    <g id="line2d_16">
     <path d="M 66.6 54.570438 
L 86.6 54.570438 
" style="fill:none;stroke:#1f77b4;stroke-linecap:square;stroke-width:1.5;"/>
    </g>
    <g id="line2d_17"/>
    <g id="text_18">
     <text style="font-family:DejaVu Sans;font-size:10px;font-style:normal;font-weight:normal;text-anchor:start;" transform="rotate(-0, 94.6, 58.070438)" x="94.6" y="58.070438">exp(-x) (Alt. Series)</text>
    </g>
   </g>
  </g>
 </g>
 <defs>
  <clipPath id="p9effcac8f8">
   <rect height="266.112" width="357.12" x="57.6" y="41.472"/>
  </clipPath>
 </defs>
</svg>

<svg height="460.8" viewBox="0 0 460.8 345.6" width="614.4" xmlns="http://www.w3.org/2000/svg" xmlns:xlink="http://www.w3.org/1999/xlink"><defs><style>*{stroke-linecap:butt;stroke-linejoin:round}</style></defs><g id="figure_1"><path d="M0 345.6h460.8V0H0z" fill="#fff" id="patch_1"/><g id="axes_1"><path d="M57.6 307.584h357.12V41.472H57.6z" fill="#fff" id="patch_2"/><g id="matplotlib.axis_1"><g id="xtick_1"><g id="line2d_1"><defs><path d="M0 0v3.5" id="mb34ff5d6d1" stroke="#000" stroke-width=".8"/></defs><use x="73.8" xlink:href="#mb34ff5d6d1" y="307.584" stroke="#000" stroke-width=".8"/></g><text x="73.8" y="322.182" font-family="DejaVu Sans" font-size="10" font-weight="400" text-anchor="middle" id="text_1">0.0</text></g><g id="xtick_2"><use x="138.744" xlink:href="#mb34ff5d6d1" y="307.584" stroke="#000" stroke-width=".8" id="line2d_2"/><text x="138.744" y="322.182" font-family="DejaVu Sans" font-size="10" font-weight="400" text-anchor="middle" id="text_2">0.2</text></g><g id="xtick_3"><use x="203.688" xlink:href="#mb34ff5d6d1" y="307.584" stroke="#000" stroke-width=".8" id="line2d_3"/><text x="203.688" y="322.182" font-family="DejaVu Sans" font-size="10" font-weight="400" text-anchor="middle" id="text_3">0.4</text></g><g id="xtick_4"><use x="268.632" xlink:href="#mb34ff5d6d1" y="307.584" stroke="#000" stroke-width=".8" id="line2d_4"/><text x="268.632" y="322.182" font-family="DejaVu Sans" font-size="10" font-weight="400" text-anchor="middle" id="text_4">0.6</text></g><g id="xtick_5"><use x="333.576" xlink:href="#mb34ff5d6d1" y="307.584" stroke="#000" stroke-width=".8" id="line2d_5"/><text x="333.576" y="322.182" font-family="DejaVu Sans" font-size="10" font-weight="400" text-anchor="middle" id="text_5">0.8</text></g><g id="xtick_6"><use x="398.52" xlink:href="#mb34ff5d6d1" y="307.584" stroke="#000" stroke-width=".8" id="line2d_6"/><text x="398.52" y="322.182" font-family="DejaVu Sans" font-size="10" font-weight="400" text-anchor="middle" id="text_6">1.0</text></g><text x="236.16" y="335.861" font-family="DejaVu Sans" font-size="10" font-weight="400" text-anchor="middle" id="text_7">Probability</text></g><g id="matplotlib.axis_2"><g id="ytick_1"><g id="line2d_7"><defs><path d="M0 0h-3.5" id="m31d31f93af" stroke="#000" stroke-width=".8"/></defs><use x="57.6" xlink:href="#m31d31f93af" y="290.259" stroke="#000" stroke-width=".8"/></g><text x="50.6" y="294.058" font-family="DejaVu Sans" font-size="10" font-weight="400" text-anchor="end" id="text_8">2</text></g><g id="ytick_2"><use x="57.6" xlink:href="#m31d31f93af" y="255.4" stroke="#000" stroke-width=".8" id="line2d_8"/><text x="50.6" y="259.2" font-family="DejaVu Sans" font-size="10" font-weight="400" text-anchor="end" id="text_9">3</text></g><g id="ytick_3"><use x="57.6" xlink:href="#m31d31f93af" y="220.542" stroke="#000" stroke-width=".8" id="line2d_9"/><text x="50.6" y="224.341" font-family="DejaVu Sans" font-size="10" font-weight="400" text-anchor="end" id="text_10">4</text></g><g id="ytick_4"><use x="57.6" xlink:href="#m31d31f93af" y="185.683" stroke="#000" stroke-width=".8" id="line2d_10"/><text x="50.6" y="189.482" font-family="DejaVu Sans" font-size="10" font-weight="400" text-anchor="end" id="text_11">5</text></g><g id="ytick_5"><use x="57.6" xlink:href="#m31d31f93af" y="150.824" stroke="#000" stroke-width=".8" id="line2d_11"/><text x="50.6" y="154.623" font-family="DejaVu Sans" font-size="10" font-weight="400" text-anchor="end" id="text_12">6</text></g><g id="ytick_6"><use x="57.6" xlink:href="#m31d31f93af" y="115.965" stroke="#000" stroke-width=".8" id="line2d_12"/><text x="50.6" y="119.764" font-family="DejaVu Sans" font-size="10" font-weight="400" text-anchor="end" id="text_13">7</text></g><g id="ytick_7"><use x="57.6" xlink:href="#m31d31f93af" y="81.106" stroke="#000" stroke-width=".8" id="line2d_13"/><text x="50.6" y="84.906" font-family="DejaVu Sans" font-size="10" font-weight="400" text-anchor="end" id="text_14">8</text></g><g id="ytick_8"><use x="57.6" xlink:href="#m31d31f93af" y="46.248" stroke="#000" stroke-width=".8" id="line2d_14"/><text x="50.6" y="50.047" font-family="DejaVu Sans" font-size="10" font-weight="400" text-anchor="end" id="text_15">9</text></g><text transform="rotate(-90 38.158 174.528)" x="38.158" y="174.528" font-family="DejaVu Sans" font-size="10" font-weight="400" text-anchor="middle" id="text_16">Average Bits Consumed Per Call</text></g><path clip-path="url(#p9effcac8f8)" d="M73.833 295.488l3.28-6.205 3.278-1.464 3.28.558 3.28.209 3.278-2.858 3.28-5.717 3.28 6.832 3.278-3.486 3.28-.906 3.28.906 3.278.837 3.28-2.51 3.28 1.185 3.278-6.623 3.28-.628 3.28 1.743 3.278-4.95 3.28-2.788 3.28-4.044 3.279 10.04 3.279-7.809 3.28-.558 3.279-2.16 3.279 4.391 3.28-4.531 3.279-4.671 3.279 1.045 3.28-.139 3.279 2.998 3.279-10.946 3.28 5.438 3.279 4.113 3.279-7.39 3.28-.767 3.279-3.555 3.279-3.207 3.28-7.32 3.279 6.692 3.279-3.346 3.28-1.534 3.279-4.81 3.279.697 3.28-3.904 3.279-13.526 3.279 17.36 3.28-14.57 3.279-2.929 3.279 9.412 3.28-11.434 3.279.628 3.279-6.135 3.28-2.58 3.279 5.856 3.279-8.505 3.28-.837 3.279-.697 3.279-8.018 3.28 8.924 3.279-1.673 3.28-9.482 3.278-3.067 3.28 1.882 3.28-4.462 3.278 4.741 3.28-16.314 3.28-.836 3.278 4.322 3.28-12.27 3.28 2.022 3.278-9.9 3.28 10.876 3.28-9.412 3.278-2.37 3.28-13.456 3.28 2.23 3.278-3.834 3.28-.278 3.28-7.251 3.278-5.229 3.28-.767 3.28-4.322 3.279-1.186 3.279-10.736 3.28 3.904 3.279-8.505 3.279-5.299 3.28-4.113 3.279 4.95 3.279-9.97h3.28l3.279-11.503 3.279-6.763 3.28 12.758 3.279-16.104 3.279 5.089 3.28-15.408h3.279l3.279-11.991 3.28 4.392" fill="none" stroke="#1f77b4" stroke-linecap="square" stroke-width="1.5" id="line2d_15"/><path d="M57.6 307.584V41.472" fill="none" stroke="#000" stroke-linecap="square" stroke-width=".8" id="patch_3"/><path d="M414.72 307.584V41.472" fill="none" stroke="#000" stroke-linecap="square" stroke-width=".8" id="patch_4"/><path d="M57.6 307.584h357.12" fill="none" stroke="#000" stroke-linecap="square" stroke-width=".8" id="patch_5"/><path d="M57.6 41.472h357.12" fill="none" stroke="#000" stroke-linecap="square" stroke-width=".8" id="patch_6"/><text x="236.16" y="35.472" font-family="DejaVu Sans" font-size="12" font-weight="400" text-anchor="middle" id="text_17">Avg. Bits Consumed by exp(-x) (Alt. Series) Algorithm</text><g id="legend_1"><path d="M64.6 64.15h129.205q2 0 2-2V48.472q0-2-2-2H64.6q-2 0-2 2V62.15q0 2 2 2z" fill="#fff" opacity=".8" stroke="#ccc" id="patch_7"/><path d="M66.6 54.57h20" fill="none" stroke="#1f77b4" stroke-linecap="square" stroke-width="1.5" id="line2d_16"/><text x="94.6" y="58.07" font-family="DejaVu Sans" font-size="10" font-weight="400" id="text_18">exp(-x) (Alt. Series)</text></g></g></g><defs><clipPath id="p9effcac8f8"><path d="M57.6 41.472h357.12v266.112H57.6z"/></clipPath></defs></svg>
